icons/file/icon_format-rar_s_white.svg

<svg xmlns="http://www.w3.org/2000/svg" width="18" height="18" viewBox="0 0 18 18" fill="none"><rect width="18" height="18" fill="none"/>
<path fill-rule="evenodd" clip-rule="evenodd" d="M14 5.706H13V2.467C13 2.177 12.749 1.941 12.441 1.941H5.707L2 5.431V5.706H1V5.04L5.293 1H12.441C13.301 1 14 1.658 14 2.467V5.706V5.706ZM12.5 17H2.5C1.673 17 1 16.367 1 15.588H2C2 15.848 2.224 16.058 2.5 16.058H12.5C12.775 16.058 13 15.848 13 15.588H14C14 16.367 13.327 17 12.5 17Z" fill="white"/>
<path d="M3.205 10.945H1.93V13.01H1V7.65002H3.12C3.738 7.65002 4.216 7.78902 4.552 8.06602C4.888 8.34302 5.056 8.74402 5.056 9.27002C5.056 9.62802 4.969 9.92902 4.795 10.172C4.623 10.412 4.383 10.597 4.073 10.727L5.277 12.962V13.01H4.28L3.205 10.945ZM1.931 10.197H3.124C3.438 10.197 3.684 10.119 3.86 9.96202C4.037 9.80202 4.125 9.58502 4.125 9.31002C4.125 9.02302 4.043 8.80002 3.878 8.64402C3.716 8.48702 3.473 8.40602 3.149 8.40102H1.931V10.197ZM9.798 11.762H7.722L7.288 13.01H6.319L8.344 7.65002H9.18L11.208 13.01H10.236L9.798 11.762ZM7.983 11.011H9.537L8.76 8.78702L7.983 11.011V11.011ZM14.427 10.945H13.187V13.01H12.255V7.65002H14.343C14.961 7.65002 15.439 7.78902 15.775 8.06602C16.111 8.34302 16.279 8.74402 16.279 9.27002C16.279 9.62802 16.192 9.92902 16.018 10.172C15.8342 10.4211 15.584 10.6134 15.296 10.727L16.5 12.962V13.01H15.502L14.427 10.945V10.945ZM13.187 10.197H14.347C14.661 10.197 14.906 10.119 15.083 9.96202C15.259 9.80202 15.348 9.58502 15.348 9.31002C15.348 9.02302 15.265 8.80002 15.101 8.64402C14.939 8.48702 14.696 8.40602 14.372 8.40102H13.187V10.197V10.197Z" fill="white" fill-opacity="0.9"/>
</svg>

<svg width="18" height="18" viewBox="0 0 18 18" fill="none" xmlns="http://www.w3.org/2000/svg"><path d="M0 0h18v18H0z"/><path fill-rule="evenodd" clip-rule="evenodd" d="M14 5.706h-1V2.467c0-.29-.251-.526-.559-.526H5.707L2 5.431v.275H1V5.04L5.293 1h7.148C13.301 1 14 1.658 14 2.467v3.239zM12.5 17h-10c-.827 0-1.5-.633-1.5-1.412h1c0 .26.224.47.5.47h10c.275 0 .5-.21.5-.47h1c0 .779-.673 1.412-1.5 1.412z" fill="#fff"/><path d="M3.205 10.945H1.93v2.065H1V7.65h2.12c.618 0 1.096.139 1.432.416.336.277.504.678.504 1.204 0 .358-.087.659-.261.902-.172.24-.412.425-.722.555l1.204 2.235v.048H4.28l-1.075-2.065zm-1.274-.748h1.193c.314 0 .56-.078.736-.235.177-.16.265-.377.265-.652 0-.287-.082-.51-.247-.666-.162-.157-.405-.238-.729-.243H1.931v1.796zm7.867 1.565H7.722l-.434 1.248h-.969l2.025-5.36h.836l2.028 5.36h-.972l-.438-1.248zm-1.815-.751h1.554L8.76 8.787l-.777 2.224zm6.444-.066h-1.24v2.065h-.932V7.65h2.088c.618 0 1.096.139 1.432.416.336.277.504.678.504 1.204 0 .358-.087.659-.261.902a1.65 1.65 0 01-.722.555l1.204 2.235v.048h-.998l-1.075-2.065zm-1.24-.748h1.16c.314 0 .559-.078.736-.235.176-.16.265-.377.265-.652 0-.287-.083-.51-.247-.666-.162-.157-.405-.238-.729-.243h-1.185v1.796z" fill="#fff" fill-opacity=".9"/></svg>
